!!!OTL: LOBT FROH DEN HERRN
!!!ARE: Europa, Mitteleuropa, Deutschland
!!!SCT: F0346
!!!YEM: Copyright 1995, estate of Helmut Schaffrath.
**kern
*ICvox
*Ivox
*M3/4
*k[f#c#]
*D:
{4A
=1
4.d
8c#
8B
8A
=2
4A
4F#}
{4A
=3
4.A
8G
8F#
8E
=4
4F#
4D}
{4A
=5
4B
4d
4B
=6
4A
4F#}
{4A
=7
4.B
8c#
8d
8B
=8
4A
4F#}
{4d
=9
4.e
8f#
4g
=10
2f#}
{4d
=11
4.c#
8d
4e
=12
2d}
==
!!!AGN: Jugend - Lied, Lob - Lied, religioes
!!!ONB: ESAC (Essen Associative Code) Database: FINK
!!!AMT: simple triple
!!!AIN: vox
!!!EED: Helmut Schaffrath
!!!EEV: 1.0
*-
